app/assets/images/icons/helmet.svg

<svg xmlns="http://www.w3.org/2000/svg" width="100" height="100" viewBox="0 0 100 100"><path fill="#4681A0" d="M50 0c27.614 0 50 22.386 50 50s-22.386 50-50 50-50-22.386-50-50 22.386-50 50-50z"/><path fill="#3F7490" d="M95.827 70h-91.655c7.717 17.656 25.327 30 45.828 30s38.111-12.344 45.827-30z"/><path fill="#EDEDED" d="M76 77h-52c-2.209 0-4-1.791-4-4v-24c0-16.568 13.432-30 30-30s30 13.432 30 30v24c0 2.209-1.791 4-4 4z"/><path fill="#fff" d="M80 55h-34c-2.762 0-5-2.238-5-5 0-1.633.795-3.069 2.006-3.982l-.006-.018 22.617-22.617c-.294-.18-.595-.35-.896-.519l-22.428 22.429-.059.059c-1.422 1.15-2.234 2.833-2.234 4.648 0 3.309 2.691 6 6 6h34v-1z"/><path fill="#93D3E8" d="M80 49c0-10.847-5.758-20.348-14.383-25.617l-22.617 22.617.006.018c-1.211.913-2.006 2.349-2.006 3.982 0 2.762 2.238 5 5 5h34v-6z"/><path fill="#fff" d="M46 47c1.657 0 3 1.343 3 3s-1.343 3-3 3-3-1.343-3-3 1.343-3 3-3z"/><path fill="#A9DCED" d="M80 55v-6c0-10.847-5.758-20.348-14.383-25.617l-3.617 3.617c7.286 5.473 12 14.186 12 24v4h6z"/><path fill="#EFC75E" d="M20 70v3c0 2.209 1.791 4 4 4h52c2.209 0 4-1.791 4-4v-8h-60v5z"/><path fill="#D5D5D5" d="M30 73v-24c0-14.864 10.813-27.196 25-29.577-1.627-.274-3.296-.423-5-.423-16.568 0-30 13.432-30 30v24c0 2.209 1.791 4 4 4h10c-2.209 0-4-1.791-4-4z"/><path fill="#D7B354" d="M30 73v-8h-10v8c0 2.209 1.791 4 4 4h10c-2.209 0-4-1.791-4-4zM76 74h-52c-2.209 0-4-1.791-4-4v3c0 2.209 1.791 4 4 4h52c2.209 0 4-1.791 4-4v-3c0 2.209-1.791 4-4 4z"/><path fill="#C1A14B" d="M30.142 74h-6.142c-2.209 0-4-1.791-4-4v3c0 2.209 1.791 4 4 4h10c-1.861 0-3.412-1.278-3.858-3z"/><path fill="#E2574C" d="M29.5 48c2.485 0 4.5 2.015 4.5 4.5s-2.015 4.5-4.5 4.5-4.5-2.015-4.5-4.5 2.015-4.5 4.5-4.5z"/><path fill="#CB4E44" d="M31.5 56c-2.485 0-4.5-2.015-4.5-4.5 0-1.37.626-2.583 1.592-3.408-2.05.42-3.592 2.233-3.592 4.408 0 2.485 2.015 4.5 4.5 4.5 1.115 0 2.122-.421 2.908-1.092-.294.061-.597.092-.908.092z"/></svg>

<svg xmlns="http://www.w3.org/2000/svg" width="100" height="100" viewBox="0 0 100 100"><path fill="#4681A0" d="M50 0c27.614 0 50 22.386 50 50s-22.386 50-50 50S0 77.614 0 50 22.386 0 50 0z"/><path fill="#3F7490" d="M95.827 70H4.172C11.889 87.656 29.499 100 50 100s38.111-12.344 45.827-30z"/><path fill="#EDEDED" d="M76 77H24a4 4 0 0 1-4-4V49c0-16.568 13.432-30 30-30s30 13.432 30 30v24a4 4 0 0 1-4 4z"/><path fill="#fff" d="M80 55H46a5 5 0 0 1-5-5c0-1.633.795-3.069 2.006-3.982L43 46l22.617-22.617c-.294-.18-.595-.35-.896-.519L42.293 45.293l-.059.059A5.942 5.942 0 0 0 40 50c0 3.309 2.691 6 6 6h34v-1z"/><path fill="#93D3E8" d="M80 49c0-10.847-5.758-20.348-14.383-25.617L43 46l.006.018C41.795 46.931 41 48.367 41 50a5 5 0 0 0 5 5h34v-6z"/><path fill="#fff" d="M46 47a3 3 0 1 1 0 6 3 3 0 0 1 0-6z"/><path fill="#A9DCED" d="M80 55v-6c0-10.847-5.758-20.348-14.383-25.617L62 27c7.286 5.473 12 14.186 12 24v4h6z"/><path fill="#EFC75E" d="M20 70v3a4 4 0 0 0 4 4h52a4 4 0 0 0 4-4v-8H20v5z"/><path fill="#D5D5D5" d="M30 73V49c0-14.864 10.813-27.196 25-29.577A30.077 30.077 0 0 0 50 19c-16.568 0-30 13.432-30 30v24a4 4 0 0 0 4 4h10a4 4 0 0 1-4-4z"/><path fill="#D7B354" d="M30 73v-8H20v8a4 4 0 0 0 4 4h10a4 4 0 0 1-4-4zm46 1H24a4 4 0 0 1-4-4v3a4 4 0 0 0 4 4h52a4 4 0 0 0 4-4v-3a4 4 0 0 1-4 4z"/><path fill="#C1A14B" d="M30.142 74H24a4 4 0 0 1-4-4v3a4 4 0 0 0 4 4h10a3.99 3.99 0 0 1-3.858-3z"/><path fill="#E2574C" d="M29.5 48a4.5 4.5 0 1 1 0 9 4.5 4.5 0 0 1 0-9z"/><path fill="#CB4E44" d="M31.5 56a4.5 4.5 0 0 1-4.5-4.5c0-1.37.626-2.583 1.592-3.408A4.5 4.5 0 0 0 29.5 57a4.462 4.462 0 0 0 2.908-1.092A4.46 4.46 0 0 1 31.5 56z"/></svg>
